demos/KANBAN/public/icons/Search.svg

<svg width="24" height="24" viewBox="0 0 24 24" fill="none" xmlns="http://www.w3.org/2000/svg">
<path d="M21.7275 20.4093L16.9401 15.6226C16.697 15.3795 16.3534 15.3025 16.0431 15.3844L15.0159 14.3573C16.1747 13.0448 16.8845 11.3267 16.8845 9.44218C16.8845 5.33871 13.5462 2 9.44261 2C5.33847 2 1.99976 5.33871 1.99976 9.44285C1.99976 13.5467 5.33847 16.885 9.44261 16.885C11.3268 16.885 13.0449 16.1755 14.3577 15.0164L15.3848 16.0436C15.3029 16.354 15.3796 16.6972 15.6231 16.9406L20.4097 21.727C20.5921 21.9093 20.83 22 21.0686 22C21.3072 22 21.5454 21.909 21.7274 21.727C22.0911 21.3633 22.0911 20.7733 21.7274 20.4093L21.7275 20.4093ZM2.93168 9.44254C2.93168 5.85288 5.85211 2.93187 9.44236 2.93187C13.0326 2.93187 15.9527 5.85288 15.9527 9.44287C15.9527 13.0325 13.0319 15.9532 9.44236 15.9532C5.85277 15.9532 2.93168 13.0325 2.93168 9.44254Z" fill="#5D6679"/>
</svg>

<svg xmlns="http://www.w3.org/2000/svg" width="24" height="24" fill="none"><path fill="#5D6679" d="m21.727 20.41-4.787-4.787a.928.928 0 0 0-.897-.239l-1.027-1.027a7.404 7.404 0 0 0 1.868-4.915C16.884 5.34 13.546 2 9.444 2 5.338 2 2 5.339 2 9.443c0 4.104 3.338 7.442 7.443 7.442 1.884 0 3.602-.71 4.915-1.869l1.027 1.028a.928.928 0 0 0 .238.897l4.787 4.786a.928.928 0 0 0 1.317 0 .932.932 0 0 0 0-1.318ZM2.932 9.442c0-3.59 2.92-6.511 6.51-6.511s6.51 2.92 6.51 6.51-2.92 6.511-6.51 6.511-6.51-2.92-6.51-6.51Z"/></svg>
